packages/kaspersky-hexa-ui-icons/src/iconsSVGs/16/Support.svg

<svg width="16" height="16" viewBox="0 0 16 16" fill="none" xmlns="http://www.w3.org/2000/svg">
<path fill-rule="evenodd" clip-rule="evenodd" d="M8.00038 1.05005C4.89249 1.05005 2.37305 3.5695 2.37305 6.67739V10.3859C2.37305 11.4342 3.22292 12.2841 4.27128 12.2841C5.31965 12.2841 6.16952 11.4342 6.16952 10.3859V8.88363C6.16952 7.83527 5.31965 6.9854 4.27128 6.9854C4.06226 6.9854 3.86113 7.01918 3.67305 7.08159V6.67739C3.67305 4.28747 5.61046 2.35005 8.00038 2.35005C10.3903 2.35005 12.3277 4.28746 12.3277 6.67739V7.08159C12.1396 7.01918 11.9385 6.9854 11.7295 6.9854C10.6811 6.9854 9.83124 7.83527 9.83124 8.88363V10.3859C9.83124 11.4342 10.6811 12.2841 11.7295 12.2841C11.9385 12.2841 12.1397 12.2503 12.3278 12.1879V12.3C12.3278 13.0456 11.7233 13.65 10.9778 13.65H8.68964C8.33065 13.65 8.03964 13.9411 8.03964 14.3C8.03964 14.659 8.33065 14.95 8.68964 14.95H10.9778C12.4413 14.95 13.6278 13.7636 13.6278 12.3V9.89159C13.6278 9.88902 13.6277 9.88645 13.6277 9.88388L13.6277 6.67739C13.6277 3.56949 11.1083 1.05005 8.00038 1.05005ZM3.67305 8.88363V10.3859C3.67305 10.7163 3.94089 10.9841 4.27128 10.9841C4.60168 10.9841 4.86952 10.7163 4.86952 10.3859V8.88363C4.86952 8.55324 4.60168 8.2854 4.27128 8.2854C3.94089 8.2854 3.67305 8.55324 3.67305 8.88363ZM11.7295 8.2854C11.3991 8.2854 11.1312 8.55324 11.1312 8.88363V10.3859C11.1312 10.7163 11.3991 10.9841 11.7295 10.9841C12.0599 10.9841 12.3277 10.7163 12.3277 10.3859V8.88363C12.3277 8.55324 12.0599 8.2854 11.7295 8.2854Z" fill="black"/>
</svg>

<svg xmlns="http://www.w3.org/2000/svg" width="16" height="16" fill="none" viewBox="0 0 16 16"><path fill="#000" fill-rule="evenodd" d="M8.0004 1.05c-3.108 0-5.6274 2.5195-5.6274 5.6274v3.7085c0 1.0483.85 1.8982 1.8983 1.8982s1.8982-.8499 1.8982-1.8982V8.8836c0-1.0483-.8498-1.8982-1.8982-1.8982-.209 0-.4102.0338-.5983.0962v-.4042c0-2.39 1.9375-4.3273 4.3274-4.3273s4.3273 1.9374 4.3273 4.3273v.4042a1.9 1.9 0 0 0-.5982-.0962c-1.0484 0-1.8983.8499-1.8983 1.8982v1.5023c0 1.0483.8499 1.8982 1.8983 1.8982.209 0 .4102-.0338.5983-.0962V12.3c0 .7456-.6045 1.35-1.35 1.35H8.6896a.65.65 0 0 0 0 1.3h2.2882c1.4635 0 2.65-1.1864 2.65-2.65V9.8916l-.0001-.0077V6.6774c0-3.108-2.5194-5.6273-5.6273-5.6273M3.673 8.8837v1.5023a.5982.5982 0 0 0 1.1965 0V8.8836a.5982.5982 0 0 0-1.1965 0m8.0565-.5982a.5983.5983 0 0 0-.5983.5982v1.5023a.5983.5983 0 0 0 1.1965 0V8.8836a.598.598 0 0 0-.5982-.5982"/></svg>
